packages/components/icon/src/assets/icons/add-to-archive.svg

<svg xmlns="http://www.w3.org/2000/svg" fill="none" viewBox="0 0 24 24"><path fill="currentColor" fill-rule="evenodd" d="M6.10868 8.88739V6.77871H4V5.10868h2.10868V3h1.66981v2.10868h2.10868v1.67003H7.77849v2.10868H6.10868zM4.93481 18.4463v-5.7188l.87037-2.3176h1.78826l-.74628 2.3176H10.435l.8925 1.7485h2.3677l.9651-1.7485h3.6063l-1.9124-5.8644-4.9443-.01172V5.11454h5.8913l2.8593 7.61296v5.7188H4.93481z" clip-rule="evenodd"/></svg>

<svg width="24" height="24" viewBox="0 0 24 24" fill="none" xmlns="http://www.w3.org/2000/svg">
<path fill-rule="evenodd" clip-rule="evenodd" d="M6.10868 8.88739V6.77871H4V5.10868H6.10868V3H7.77849V5.10868H9.88717V6.77871H7.77849V8.88739H6.10868ZM4.93481 18.4463V12.7275L5.80518 10.4099H7.59344L6.84716 12.7275H10.435L11.3275 14.476H13.6952L14.6603 12.7275H18.2666L16.3542 6.8631L11.4099 6.85138V5.11454H17.3012L20.1605 12.7275V18.4463H4.93481Z" fill="currentColor"/>
</svg>
